public/static/icons/ic_dropbox.svg

<svg height="24" viewBox="0 0 24 24" width="24" xmlns="http://www.w3.org/2000/svg"><path d="m12 13.0166275-4.94025 4.156313-7.05975-4.6461715 4.88175-3.940034 7.1182355 4.429884 7.1181145-4.4305645 4.88175 3.9407905-7.05975 4.6460955-4.94025-4.1562375zm-4.9401-13.0166275-7.05975 4.6460955 4.88175 3.9400345 7.11825-4.4298925zm4.954575 13.910846-4.9545 4.144142-2.12025-1.3954915v1.5640695l7.07475 4.276434 7.07475-4.276434v-1.5640695l-2.12025 1.3954915zm11.985525-9.2646745-7.05975-4.646096-4.94025 4.1562375 7.11825 4.4298925z" fill="#0f82e2"/></svg>

<svg xmlns="http://www.w3.org/2000/svg" width="24" height="24" viewBox="0 0 24 24">
  <path fill="#0F82E2" d="M12,13.0166275 L7.05975,17.1729405 L0,12.526769 L4.88175,8.586735 L11.9999855,13.016619 L19.1181,8.5860545 L23.99985,12.526845 L16.9401,17.1729405 L11.99985,13.016703 L12,13.0166275 Z M7.0599,0 L0.00015,4.6460955 L4.8819,8.58613 L12.00015,4.1562375 L7.0599,0 Z M12.014475,13.910846 L7.059975,18.054988 L4.939725,16.6594965 L4.939725,18.223566 L12.014475,22.5 L19.089225,18.223566 L19.089225,16.6594965 L16.968975,18.054988 L12.014475,13.910846 Z M24,4.6461715 L16.94025,7.55e-05 L12,4.156313 L19.11825,8.5862055 L24,4.6461715 Z"/>
</svg>
